X:287
T:Willafjord
R:reel
M:4/4
L:1/8
N:The Boat Race, Cambridge
Z:Michael Shulman
K:D
B2|A2FA- AFA2|B2GB- BGB2|A2FA- AFA2|EFGA GFED|
A2FA- AFA2|B2GB- BGB2|ABcd egfe|f2d2 d2:|
e2|f2af- faf2|g2gf gfed|f2af- faf2|edcB A2e2|
f2af- faf2|g2gf gfed|ABcd egfe|f2d2 d2:|
